www/assets/icons/sports_motorsports.svg

<svg width="24" height="24" viewBox="0 0 24 24" xmlns="http://www.w3.org/2000/svg" fill='currentColor'><path d="M12.0016 11.3894C12.0016 10.7394 11.6116 10.1594 11.0216 9.90937L5.44159 7.54937C3.96159 9.22937 3.12159 11.2494 2.64159 12.9994H10.3916C11.2816 12.9994 12.0016 12.2794 12.0016 11.3894Z"/><path d="M21.9616 11.2194C21.5516 6.80937 17.4016 3.72937 12.9816 4.01937C10.4716 4.17937 8.54159 4.95937 7.05159 6.05937L11.7916 8.06937C13.1216 8.63937 13.9916 9.93937 13.9916 11.3894C13.9916 13.3794 12.3716 14.9994 10.3816 14.9994H2.21159C2.00159 16.3094 2.00159 17.1994 2.00159 17.1994V17.9994C2.00159 19.0994 2.90159 19.9994 4.00159 19.9994H14.0016C18.6716 19.9994 22.4116 15.9894 21.9616 11.2194Z"/></svg>

<svg xmlns="http://www.w3.org/2000/svg" width="24" height="24" viewBox="0 0 24 24" fill='currentColor'><path d="M12.002 11.39c0-.65-.39-1.23-.98-1.48l-5.58-2.36c-1.48 1.68-2.32 3.7-2.8 5.45h7.75c.89 0 1.61-.72 1.61-1.61"/><path d="M21.962 11.22c-.41-4.41-4.56-7.49-8.98-7.2-2.51.16-4.44.94-5.93 2.04l4.74 2.01c1.33.57 2.2 1.87 2.2 3.32 0 1.99-1.62 3.61-3.61 3.61h-8.17c-.21 1.31-.21 2.2-.21 2.2v.8c0 1.1.9 2 2 2h10c4.67 0 8.41-4.01 7.96-8.78"/></svg>
